X:1
T:Queen of the Rushes
M:6/8
L:1/8
Q:80
C:Arranged by T. Tully
S:Jig
K:HP
{d}c | \
e{g}e{A}eaec | \
e{g}e{A}eaec | \
d{e}d{c}d{g}Bcd |
{g}Bcd{g}Bcde{g}e{A}eaec | \
e{g}e{A}eaec | \
c{e}c{G}c{gde}dB{d}G |
{g}A3{GAG}A2 :| \
{d}B | \
c{e}c{G}c{g}ABc | \
d{e}d{c}d{g}Bcd |
c{e}c{G}c{g}ABc | \
{gde}dB{d}A{g}GAB|1 c{e}c{G}c{g}ABc | \
d{e}d{c}d{g}Bcd |
c{e}c{G}c{gde}dB{d}G | \
{g}A3{GAG}A2:|2
c{e}c{G}c{g}Ac{G}c |
d{e}d{c}d{g}Bd{c}d | \
c{e}c{G}c{gde}dB{d}G | \
{g}A3{GAG}A2 :|
{d}c | \
e{g}e{A}eac{G}c | \
{gef}ec{G}cac{G}c | \
e{g}e{A}e{g}Bd{c}d |
{g}ce{A}e{g}Bd{c}de{g}e{A}eac{G}c | \
{gef}ec{G}cac{G}c | \
e{g}e{A}e{gde}dB{d}G |
{g}A3{GAG}A2 :| \
{d}c | \
e{g}e{A}e{g}Ac{G}c | \
d{e}d{c}d{g}GB{G}B |
e{g}e{A}e{g}Ac{G}c | \
{gde}dB{d}A{g}GAB|1 c{e}c{G}c{g}ABc | \
d{e}d{c}d{g}Bcd |
e{g}e{A}e{gde}dA{d}G | \
{g}A3{GAG}A2:|2
c{e}c{G}c{g}Ac{G}c |
d{e}d{c}d{g}Bd{c}d | \
e{g}e{A}e{gde}dA{d}G | \
{g}A3{GAG}A2 :|
{d}c | \
e{g}e{A}e"flick"a3 | \
ce{A}e"flick"a3 | \
df{e}f{g}Bd{c}d |
{g}cde{g}Bcde{g}e{A}e"flick"a3 | \
ce{A}e"flick"a3 | \
ge{A}e{gde}dB{d}G |
{g}A3{GAG}A2 :|
